icon/fa/users-rays.svg

<svg xmlns="http://www.w3.org/2000/svg" viewBox="0 0 640 512"><!--! Font Awesome Free 6.1.2 by @fontawesome - https://fontawesome.com License - https://fontawesome.com/license/free (Icons: CC BY 4.0, Fonts: SIL OFL 1.1, Code: MIT License) Copyright 2022 Fonticons, Inc.--><path d="M112.1 79.03c10.2 9.37 10.2 24.57 0 33.07-8.5 10.2-23.7 10.2-33.07 0L7.029 40.97c-9.372-9.37-9.372-24.57 0-33.941 9.371-9.372 24.571-9.372 33.941 0L112.1 79.03zM599 7.029c9.4-9.372 24.6-9.372 33.1 0 10.2 9.371 10.2 24.571 0 33.941l-72 71.13c-8.5 10.2-23.7 10.2-33.1 0-9.3-8.5-9.3-23.7 0-33.07l72-72.001zM7.029 471l72.001-72c9.37-9.3 24.57-9.3 33.07 0 10.2 9.4 10.2 24.6 0 33.1l-71.13 72c-9.37 10.2-24.57 10.2-33.941 0-9.372-8.5-9.372-23.7 0-33.1zM527 432.1c-9.3-8.5-9.3-23.7 0-33.1 9.4-9.3 24.6-9.3 33.1 0l72 72c10.2 9.4 10.2 24.6 0 33.1-8.5 10.2-23.7 10.2-33.1 0l-72-72zM256 192c0-35.3 28.7-64 64-64s64 28.7 64 64-28.7 64-64 64-64-28.7-64-64zm9.5 97.5c.8-.2 1.6-.4 1.6-1.4 4.8.2 8.8-.1 12.9-.1h80c4.1 0 8.1.3 12 .1 24.6 5 44.9 21.6 54.3 43 .6 2.2 1.1 3.5 1.6 4.9 2.7 7.5 4.1 15.6 4.1 24 0 13.3-10.7 24-24 24H232c-13.3 0-24-10.7-24-24 0-8.4 1.4-16.5 4.1-24 8.3-23.5 28.5-41.4 53.4-46.5zM127.8 176c0-26.5 21.5-48 48-48s48 21.5 48 48-21.5 48-48 48-48-21.5-48-48zm90.9 80c9.1 0 17.8 2.3 25.3 6.4-32.4 11.9-57.2 39.5-65.2 73.6h-56.1c-14.8 0-26.7-11.9-26.7-26.7 0-29.4 23.9-53.3 53.3-53.3h69.4zm298.6 80h-56.1c-8-34.1-32.8-61.7-66.1-73.6 8.4-4.1 17.1-6.4 26.2-6.4h69.4c29.4 0 53.3 23.9 53.3 53.3 0 14.8-11.9 26.7-26.7 26.7zM416 176c0-26.5 21.5-48 48-48s48 21.5 48 48-21.5 48-48 48-48-21.5-48-48z"/></svg>

<svg xmlns="http://www.w3.org/2000/svg" viewBox="0 0 640 512" height="1em" width="1em">
<!--! Font Awesome Free 6.1.2 by @fontawesome - https://fontawesome.com License - https://fontawesome.com/license/free (Icons: CC BY 4.0, Fonts: SIL OFL 1.1, Code: MIT License) Copyright 2022 Fonticons, Inc.-->
  <path d="M112.1 79.03C122.3 88.4 122.3 103.6 112.1 112.1C103.6 122.3 88.4 122.3 79.03 112.1L7.029 40.97C-2.343 31.6-2.343 16.4 7.029 7.029C16.4-2.343 31.6-2.343 40.97 7.029L112.1 79.03zM599 7.029C608.4-2.343 623.6-2.343 632.1 7.029C642.3 16.4 642.3 31.6 632.1 40.97L560.1 112.1C551.6 122.3 536.4 122.3 527 112.1C517.7 103.6 517.7 88.4 527 79.03L599 7.029zM7.029 471L79.03 399C88.4 389.7 103.6 389.7 112.1 399C122.3 408.4 122.3 423.6 112.1 432.1L40.97 504.1C31.6 514.3 16.4 514.3 7.029 504.1C-2.343 495.6-2.343 480.4 7.029 471V471zM527 432.1C517.7 423.6 517.7 408.4 527 399C536.4 389.7 551.6 389.7 560.1 399L632.1 471C642.3 480.4 642.3 495.6 632.1 504.1C623.6 514.3 608.4 514.3 599 504.1L527 432.1zM256 192C256 156.7 284.7 128 320 128C355.3 128 384 156.7 384 192C384 227.3 355.3 256 320 256C284.7 256 256 227.3 256 192zM265.5 289.5C266.3 289.3 267.1 289.1 267.1 288.1C271.9 288.3 275.9 288 280 288H360C364.1 288 368.1 288.3 372 288.1C396.6 293.1 416.9 309.7 426.3 331.1C426.9 333.3 427.4 334.6 427.9 336C430.6 343.5 432 351.6 432 360C432 373.3 421.3 384 408 384H232C218.7 384 208 373.3 208 360C208 351.6 209.4 343.5 212.1 336C220.4 312.5 240.6 294.6 265.5 289.5V289.5zM127.8 176C127.8 149.5 149.3 128 175.8 128C202.3 128 223.8 149.5 223.8 176C223.8 202.5 202.3 224 175.8 224C149.3 224 127.8 202.5 127.8 176V176zM218.7 256C227.8 256 236.5 258.3 244 262.4C211.6 274.3 186.8 301.9 178.8 336H122.7C107.9 336 96 324.1 96 309.3C96 279.9 119.9 256 149.3 256H218.7zM517.3 336H461.2C453.2 301.9 428.4 274.3 395.1 262.4C403.5 258.3 412.2 256 421.3 256H490.7C520.1 256 544 279.9 544 309.3C544 324.1 532.1 336 517.3 336H517.3zM416 176C416 149.5 437.5 128 464 128C490.5 128 512 149.5 512 176C512 202.5 490.5 224 464 224C437.5 224 416 202.5 416 176z"/>
</svg>
